packages/core/src/svgs/tokens/mono/STRONG.svg

<svg width="24" height="24" viewBox="0 0 24 24" fill="none" xmlns="http://www.w3.org/2000/svg">
<path fill-rule="evenodd" clip-rule="evenodd" d="M22 12C22 17.5229 17.5229 22 12 22C6.47705 22 2 17.5229 2 12C2 6.47705 6.47705 2 12 2C17.5229 2 22 6.47705 22 12ZM20.8235 12C20.8235 16.873 16.873 20.8235 12 20.8235C7.12704 20.8235 3.17647 16.873 3.17647 12C3.17647 7.12704 7.12704 3.17647 12 3.17647C16.873 3.17647 20.8235 7.12704 20.8235 12ZM14.1853 6.11764L17.8824 8.88293V9.05881H9.05881V12H14.353V14.3553H6.11764V6.11764H14.1853ZM9.64707 9.64707H17.8824V17.8824H9.76826L6.11764 15.1518V14.9435H14.9411V11.4118H9.64707V9.64707Z" fill="white"/>
</svg>

<svg xmlns="http://www.w3.org/2000/svg" width="24" height="24" fill="none" viewBox="0 0 24 24">
    <path fill="#fff" fill-rule="evenodd" d="M22 12c0 5.523-4.477 10-10 10S2 17.523 2 12 6.477 2 12 2s10 4.477 10 10m-1.177 0a8.824 8.824 0 1 1-17.647 0 8.824 8.824 0 0 1 17.648 0m-6.638-5.882 3.697 2.765v.176H9.06V12h5.294v2.355H6.118V6.118zm-4.538 3.53h8.235v8.234H9.768l-3.65-2.73v-.208h8.823v-3.532H9.647z" clip-rule="evenodd"/>
</svg>
